actions/16/kdenlive-zoom-small.svg

<svg xmlns="http://www.w3.org/2000/svg" style="fill-rule:evenodd;clip-rule:evenodd;stroke-linejoin:round;stroke-miterlimit:2" width="100%" height="100%" viewBox="0 0 16 16" xml:space="preserve">
 <defs>
  <style id="current-color-scheme" type="text/css">
   .ColorScheme-Text { color:#dfdfdf; } .ColorScheme-Highlight { color:#4285f4; } .ColorScheme-NeutralText { color:#ff9800; } .ColorScheme-PositiveText { color:#4caf50; } .ColorScheme-NegativeText { color:#f44336; }
  </style>
 </defs>
 <path style="fill:currentColor;" class="ColorScheme-Text" d="M8,8l-2,4l4,0l-2,-4Zm0,0l-2,-4l4,0l-2,4Z"/>
 <path style="fill:currentColor;" class="ColorScheme-Text" d="M1,9.007l0,3.993c0,1 1,1 1,1l4,0l0,-1.178l-3.822,-0l0,-3.815l-1.178,0Zm12.822,0l-0,3.815l-3.822,-0l0,1.178l4,0c0,0 1,0 1,-1l0,-3.993l-1.178,0Zm-11.822,-7.007c-1,0 -1,1 -1,1l0,3.998l1.178,-0l0,-3.82l3.822,0l0,-1.178l-4,0Zm8,0l0,1.178l3.822,0l-0,3.82l1.178,-0l0,-3.998c0,-1 -1,-1 -1,-1l-4,0Z"/>
</svg>

<svg xmlns="http://www.w3.org/2000/svg" style="fill-rule:evenodd;clip-rule:evenodd;stroke-linejoin:round;stroke-miterlimit:2" viewBox="0 0 16 16" xml:space="preserve">
    <path style="fill:currentColor;color:#dfdfdf" d="m8 8-2 4h4L8 8Zm0 0L6 4h4L8 8ZM1 9.007V13c0 1 1 1 1 1h4v-1.178H2.178V9.007H1Zm12.822 0v3.815H10V14h4s1 0 1-1V9.007h-1.178ZM2 2C1 2 1 3 1 3v3.998h1.178v-3.82H6V2H2Zm8 0v1.178h3.822v3.82H15V3c0-1-1-1-1-1h-4Z"/>
</svg>
